!!!!SEGMENT: pl-kk--kk-i-277--001-001_anonim--rorate-caeli-rorate-caeli.krn
!!!cenid: 16xx:1073
!!!COM: Anonim
!!!COM-rismid: pe30004985
!!!CDT:
!!!CNT:
!!!OPR: Rorate caeli
!!!OTL: Rorate caeli
!!!OMV: 001
!!!PDT:
!!!AGN: Sacred
!!!SMS-siglum: PL-Kk
!!!SMS-shelfmark: Kk.I.277
!!!SMS-shelfwork: 001-001 M
!!!SMS-variant:
!!!SMS-altvar:
!!!NIFC-rismid: 1001147186
!!!URL-scan: http://repozytorium.nifc.pl/skany/pl-kk-nut--i-277
!!!ONB-nifc: UWAGA: Rorate 1mi officii od str. 1. Części: 1. Rorate caeli (Rorate caeli + Benedixisti + Gloria patri), 2. Kyrie, 3. Tollite portas, 4. Alleluia, 5. Mittit ad virginem, 6. Ave Maria, 7. Sanctus, 8. Agnus Dei, 9. Ecce virgo, 10. Deo gratias
**kern	**text
*Itenor	*
*I"[Tenore]	*
*I'[T]	*
*clefC4	*
*k[]	*
*d:	*
*M2/1	*
*met(C)	*
!LO:TX:a:i:t=Introit(us) P(rim)i officij	!
*lig	*
!LO:TX:t=P:problem:R wielkie, przed kluczem, na pocz. pięciolinii, jako inicjał	!
1C	Ro-
1D	.
*Xlig	*
=1-	=1-
*lig	*
1D	-ra-
1A	.
*Xlig	*
=2-	=2-
1c	.
1A	-te
=3-	=3-
*lig	*
1A	Cae-
1B	.
*Xlig	*
=4-	=4-
1c	.
1A	.
=5-	=5-
*lig	*
1A	-li
1G	.
*Xlig	*
=6-	=6-
*lig	*
1A	de
1c	.
*Xlig	*
=7-	=7-
*lig	*
1c	ſu-
1B	.
*Xlig	*
=8-	=8-
*lig	*
1c	.
1d	.
*Xlig	*
!LO:LB:g=original	!
=9-	=9-
*lig	*
1c	.
1d	.
*Xlig	*
=10-	=10-
*lig	*
1d	-per
1c	.
*Xlig	*
=11-	=11-
1G	et
1B	nu-
=12-	=12-
*lig	*
1c	.
1A	.
*Xlig	*
=13-	=13-
1A	-bes
1B	plu-
=14-	=14-
*lig	*
1c	.
1A	.
*Xlig	*
=15-	=15-
1A	-ant
*lig	*
1G	iu-
=16-	=16-
1F	.
*Xlig	*
*lig	*
1A	.
=17-	=17-
1G	.
*Xlig	*
*lig	*
1F	.
=18-	=18-
1G	.
*Xlig	*
1F	.
=19-	=19-
1F	-ſtum
1F	a-
=20-	=20-
1G	-pe-
1A	-ri-
!LO:LB:g=original	!
=21-	=21-
*lig	*
1A	-a-
1c	.
*Xlig	*
=22-	=22-
1G	-tur
*lig	*
1F	ter-
=23-	=23-
1G	.
*Xlig	*
*lig	*
1F	.
=24-	=24-
1D	.
*Xlig	*
1D	-ra
=25-	=25-
1F	et
1F	ger-
=26-	=26-
1G	-mi-
1F	.
=27-	=27-
1G	-net
*lig	*
1F	.
=28-	=28-
1D	.
*Xlig	*
*lig	*
1D	Sal-
=29-	=29-
1F	.
*Xlig	*
1C	-ua-
=30-	=30-
*lig	*
1F	.
1D	.
*Xlig	*
=31-	=31-
*lig	*
1D	-to-
1E	.
*Xlig	*
=32-	=32-
0F	.
=33-	=33-
1D	.
1D;;l	-rem
!LO:LB:g=original	!
=34-	=34-
*M2/1	*
*met(C)	*
!LO:TX:t=P:problem:B wielkie jako inicjał	!
1F	Be-
*lig	*
1G	-ne-
=35-	=35-
1A	.
*Xlig	*
2A/	-di-
2A/	-xi-
=36-	=36-
1A,<	-ſti
2A/	Do-
2A/	-mi-
=37-	=37-
2A,</	-ne
2A/	ter-
1c	.
=38-	=38-
!LO:TX:a:t=2	!
0A,<	-ram
=39-	=39-
*lig	*
1A	tu-
1G	.
*Xlig	*
=40-	=40-
*lig	*
1G	-am
1A,<	.
*Xlig	*
=41-	=41-
*lig	*
1G	a-
1F	.
*Xlig	*
=42-	=42-
*lig	*
1G	-ver-
1A	.
*Xlig	*
=43-	=43-
!LO:TX:a:t=2	!
0A	-ti-
=44-	=44-
!LO:TX:a:t=2	!
0A	-ſti
!LO:LB:g=original	!
=45-	=45-
!LO:TX:a:t=2	!
0A	ca-
=46-	=46-
1A	-pti-
!LO:TX:a:t=2	!
0A	-vi-
=47-	=47-
.	.
!LO:TX:a:t=2	!
0A	-ta-
=48-	=48-
.	.
1B	.
=49-	=49-
*lig	*
1c	.
1A	.
*Xlig	*
=50-	=50-
1G	-tem
1F,<	.
=51-	=51-
*lig	*
1F	Ja-
1E	.
*Xlig	*
=52-	=52-
1D	-cob
1D;;l	.
=53-	=53-
*M2/1	*
*met(C)	*
!LO:TX:t=P:problem:G wielkie jako inicjał	!
1F	Glo-
*lig	*
1G	-ri-
=54-	=54-
1A	.
*Xlig	*
1A,<	-a
=55-	=55-
1A	Pa-
1A,<	-tri
!LO:LB:g=original	!
=56-	=56-
1A,<	et
1A	Fi-
=57-	=57-
1A	-li-
1A,<	-o
=58-	=58-
1A,<	et
1A	Spi-
=59-	=59-
*lig	*
1A	-ri-
1c	.
*Xlig	*
=60-	=60-
1A	-tu-
1A,<	-i
=61-	=61-
*lig	*
1A	ſan-
1G	.
*Xlig	*
=62-	=62-
*lig	*
1G	-cto
1A,<	.
*Xlig	*
=63-	=63-
*lig	*
1G	ſi-
1F	.
*Xlig	*
=64-	=64-
*lig	*
1G	-cut
1A,<	.
*Xlig	*
=65-	=65-
1A	e-
1A,<	-rat
=66-	=66-
1A,<	in
1A	prin-
=67-	=67-
1A	-ci-
1A	-pi-
!LO:LB:g=original	!
=68-	=68-
1A,<	-o
1A	et
=69-	=69-
*lig	*
1A	nunc
1c,<	.
*Xlig	*
=70-	=70-
1A,<	et
*lig	*
1A	ſem-
=71-	=71-
1G	.
*Xlig	*
*lig	*
1G	-per
=72-	=72-
1A,<	.
*Xlig	*
*lig	*
1G	et
=73-	=73-
1F,<	.
*Xlig	*
*lig	*
1G	in
=74-	=74-
1A,<	.
*Xlig	*
!LO:SIC:l:v:s=ſae-	!
1A	ſe-
=75-	=75-
1A,<	-cu-
1A,<	-la
=76-	=76-
!LO:SIC:l:v:s=ſae-	!
1A	ſe-
*lig	*
1A	-cu-
=77-	=77-
1B	.
*Xlig	*
*lig	*
1c	-lo-
=78-	=78-
1A	.
*Xlig	*
1G	.
=79-	=79-
1F,<	-rum
*lig	*
1F	a-
=80-	=80-
1E	.
*Xlig	*
1Dl	-men
=-	=-
*-	*-
!!!RDF**kern: l = terminal long
!!!RDF**kern: > = above
!!!RDF**kern: < = below
!!!EED: Antoni Szymański
!!!EST: 2021-03-28
!!!ENC: Mateusz Solarz
!!!END: 2021-03-15
